X:2
T:Polka  CGF (pk07670) 
S:Hanny Christen. Bd.V  Basel II, Jura. S.32  (pk07670) orig. Bb,F,Eb
S: Basel II. TÃ¤nze aus Augst. S.6-42.
S:Ãœberliefert durch Erwin Baumgartner (*1878) und Hans Tschudin (*1886)
%%MIDI program 21
R:Polka
M:2/4
L:1/16
K:C  %%MIDI gchordon
gf |: "C"efg2 c2e2 | "Dm"fga2 d3c' | "G7"b2b2 a3b | "C"d'c'ba g2gf |  efg2 c2e2 | "Dm"fga2 d3c' | 
"G7"bag^f =fgab |1 "C"c'2c'2 c'2gf :|2 "C"c'2c'2 c'2z2 |: [K:G] "D7"c'bag f3e | "G"eddb b3d | "D7"dcca a3c | "G"cBBgg4 | 
"D7"c'bag f3e | "G"eddb b3d | "D7"dcca a3f |1 "G"g2b2 g2z2 :|2 "G"g2b2 g2g"_>Teil A"=f |: [K:F]  "F"AAA2 B2=B2 | 
(c4 c)ABc | d2c2 A2F2 | D4C4 | "C7"G2GA B2BA | G8 | c2cd e2ed | c4B4 | "F"AAA2 B2=B2 | 
(c4 c)ABc | d2c2 A2F2 | "Gm"d4G4 | {/A}G^FGA B4 | {/g}"F"fefg a4 | {/d}"C7"c=Bcd ecde |  "F"f2a2 f2"_Fine"z2 :| 
W:Parts: ABAC
% pk07670
% Dec 12, 2017 

